X: 34349
T: Return To Miltown, The
R: reel
M: 4/4
K: Adorian
|:~A2 BA ~A2 BA|G2 BG cABG|~ A2 BA ~A2 BA|GA B/^c/d gedB|
~A2 A/A/A AcBA|G2 BG cABG|c2 cA B2 BA|GA B/^c/d gedB:|
|:eaae ^c2 BA|BAB^c d2 cd|eaae ^c2 BA|Beed BA B/^c/d|
eaae ^c2 BA|BAB^c d2 ed|c2 cA B2 BA|GA B/^c/d gedB:|

